binary-multipler/2-vectorized.svg

<?xml version="1.0" encoding="UTF-8"?>
<svg width="540" height="340" stroke="#000" stroke-linecap="square" stroke-width="2" version="1.1" xmlns="http://www.w3.org/2000/svg">
  <line x1="460" x2="470" y1="180" y2="180"/>
  <line x1="460" x2="470" y1="250" y2="250"/>
  <line x1="470" x2="470" y1="220" y2="250"/>
  <line x1="340" x2="390" y1="240" y2="240"/>
  <line x1="120" x2="150" y1="310" y2="310"/>
  <line x1="120" x2="120" y1="280" y2="310"/>
  <line x1="140" x2="150" y1="290" y2="290"/>
  <line x1="140" x2="140" y1="240" y2="290"/>
  <line x1="140" x2="150" y1="240" y2="240"/>
  <line x1="140" x2="140" y1="200" y2="240"/>
  <line x1="80" x2="140" y1="200" y2="200"/>
  <line x1="80" x2="80" y1="60" y2="200"/>
  <line x1="100" x2="100" y1="110" y2="260"/>
  <line x1="100" x2="150" y1="110" y2="110"/>
  <line x1="140" x2="150" y1="90" y2="90"/>
  <line x1="140" x2="140" y1="40" y2="90"/>
  <line x1="120" x2="150" y1="60" y2="60"/>
  <line x1="120" x2="120" y1="60" y2="280"/>
  <line x1="80" x2="150" y1="40" y2="40"/>
  <line x1="360" x2="360" y1="260" y2="300"/>
  <g dominant-baseline="middle" font-family="Arial" font-size="12px" stroke="none" text-anchor="end">
    <text x="52" y="280">B1</text>
    <text x="52" y="260">B0</text>
    <text x="52" y="60">A1</text>
    <text x="52" y="40">A0</text>
  </g>
  <g dominant-baseline="middle" font-family="Arial" font-size="12px" stroke="none">
    <text x="498" y="220">C3</text>
    <text x="498" y="180">C2</text>
    <text x="498" y="140">C1</text>
    <text x="498" y="100">C0</text>
  </g>
  <g fill="none">
    <ellipse cx="490" cy="220" rx="3" ry="3"/>
    <ellipse cx="490" cy="180" rx="3" ry="3"/>
    <ellipse cx="490" cy="140" rx="3" ry="3"/>
    <ellipse cx="490" cy="100" rx="3" ry="3"/>
    <ellipse cx="60" cy="280" rx="3" ry="3"/>
    <ellipse cx="60" cy="260" rx="3" ry="3"/>
    <ellipse cx="60" cy="60" rx="3" ry="3"/>
    <ellipse cx="60" cy="40" rx="3" ry="3"/>
  </g>
  <line x1="470" x2="487" y1="220" y2="220"/>
  <line x1="470" x2="487" y1="180" y2="180"/>
  <line x1="470" x2="487" y1="140" y2="140"/>
  <line x1="470" x2="487" y1="100" y2="100"/>
  <line x1="63" x2="120" y1="280" y2="280"/>
  <line x1="63" x2="150" y1="260" y2="260"/>
  <line x1="63" x2="80" y1="60" y2="60"/>
  <line x1="63" x2="100" y1="40" y2="40"/>
  <line x1="360" x2="390" y1="260" y2="260"/>
  <line x1="360" x2="390" y1="190" y2="190"/>
  <line x1="360" x2="360" y1="190" y2="260"/>
  <line x1="210" x2="360" y1="300" y2="300"/>
  <line x1="340" x2="400" y1="170" y2="170"/>
  <line x1="340" x2="340" y1="170" y2="240"/>
  <line x1="320" x2="400" y1="240" y2="240"/>
  <line x1="330" x2="480" y1="140" y2="140"/>
  <line x1="210" x2="480" y1="100" y2="100"/>
  <line x1="230" x2="260" y1="250" y2="250"/>
  <line x1="250" x2="250" y1="110" y2="230"/>
  <line x1="230" x2="260" y1="150" y2="150"/>
  <line x1="230" x2="230" y1="150" y2="250"/>
  <line x1="220" x2="270" y1="250" y2="250"/>
  <line x1="250" x2="260" y1="130" y2="130"/>
  <line x1="250" x2="250" y1="50" y2="130"/>
  <line x1="210" x2="250" y1="50" y2="50"/>
  <line x1="390" x2="405" y1="170" y2="170"/>
  <line x1="390" x2="405" y1="190" y2="190"/>
  <line x1="455.02" x2="465.02" y1="180" y2="180"/>
  <line x1="390" x2="405" y1="240" y2="240"/>
  <line x1="390" x2="405" y1="260" y2="260"/>
  <path d="m405 240m0-10v40h24m-24-40h24m0 40a5 5 90 0 0 0-40" fill="none"/>
  <line x1="451" x2="460" y1="250" y2="250"/>
  <line x1="250" x2="270" y1="230" y2="230"/>
  <line x1="250" x2="270" y1="250" y2="250"/>
  <path d="m270 230m0-10v40h24m-24-40h24m0 40a5 5 90 0 0 0-40" fill="none"/>
  <line x1="316" x2="330" y1="240" y2="240"/>
  <line x1="150" x2="165" y1="290" y2="290"/>
  <line x1="150" x2="165" y1="310" y2="310"/>
  <path d="m165 290m0-10v40h24m-24-40h24m0 40a5 5 90 0 0 0-40" fill="none"/>
  <line x1="211" x2="220" y1="300" y2="300"/>
  <line x1="150" x2="165" y1="240" y2="240"/>
  <line x1="150" x2="165" y1="260" y2="260"/>
  <path d="m165 240m0-10v40h24m-24-40h24m0 40a5 5 90 0 0 0-40" fill="none"/>
  <line x1="211" x2="220" y1="250" y2="250"/>
  <line x1="260" x2="275" y1="130" y2="130"/>
  <line x1="260" x2="275" y1="150" y2="150"/>
  <path d="m269 120c13.333 13.333 13.333 26.667 0 40m7.5 0c22.833-3.3333 39.5-10 49.5-20-10-10-26.667-16.667-49.5-20 13.833 13.333 13.833 26.667 0 40z" fill="none" stroke-linecap="round" stroke-linejoin="round"/>
  <line x1="325" x2="330" y1="140" y2="140"/>
  <line x1="150" x2="165" y1="90" y2="90"/>
  <line x1="150" x2="165" y1="110" y2="110"/>
  <path d="m165 90m0-10v40h24m-24-40h24m0 40a5 5 90 0 0 0-40" fill="none"/>
  <line x1="211" x2="220" y1="100" y2="100"/>
  <line x1="150" x2="165" y1="40" y2="40"/>
  <line x1="150" x2="165" y1="60" y2="60"/>
  <path d="m165 40m0-10v40h24m-24-40h24m0 40a5 5 90 0 0 0-40" fill="none"/>
  <line x1="211" x2="220" y1="50" y2="50"/>
  <ellipse cx="340" cy="240" rx="2" ry="2"/>
  <ellipse cx="120" cy="280" rx="2" ry="2"/>
  <ellipse cx="140" cy="240" rx="2" ry="2"/>
  <ellipse cx="100" cy="260" rx="2" ry="2"/>
  <ellipse cx="140" cy="40" rx="2" ry="2"/>
  <ellipse cx="360" cy="260" rx="2" ry="2"/>
  <ellipse cx="230" cy="250" rx="2" ry="2"/>
  <ellipse cx="250" cy="130" rx="2" ry="2"/>
  <path d="m398.02 160c13.333 13.333 13.333 26.667 0 40m57-20c-10-10-26.667-16.667-49.5-20 13.833 13.333 13.833 26.667 0 40 22.833-3.3333 39.5-10 49.5-20z" fill="none" stroke-linecap="round" stroke-linejoin="round"/>
</svg>

﻿<?xml version="1.0" encoding="UTF-8"?>
<svg version="1.1" width="540" height="340" xmlns="http://www.w3.org/2000/svg"
     stroke-width="2"
     stroke-linecap="square"
     stroke="#000">
  <line x1="460" y1="180" x2="470" y2="180"/>
  <line x1="460" y1="250" x2="470" y2="250"/>
  <line x1="470" y1="220" x2="470" y2="250"/>
  <line x1="340" y1="240" x2="390" y2="240"/>
  <line x1="120" y1="310" x2="150" y2="310"/>
  <line x1="120" y1="280" x2="120" y2="310"/>
  <line x1="140" y1="290" x2="150" y2="290"/>
  <line x1="140" y1="240" x2="140" y2="290"/>
  <line x1="140" y1="240" x2="150" y2="240"/>
  <line x1="140" y1="200" x2="140" y2="240"/>
  <line x1="80" y1="200" x2="140" y2="200"/>
  <line x1="80" y1="60" x2="80" y2="200"/>
  <line x1="100" y1="110" x2="100" y2="260"/>
  <line x1="100" y1="110" x2="150" y2="110"/>
  <line x1="140" y1="90" x2="150" y2="90"/>
  <line x1="140" y1="40" x2="140" y2="90"/>
  <line x1="120" y1="60" x2="150" y2="60"/>
  <line x1="120" y1="60" x2="120" y2="280"/>
  <line x1="80" y1="40" x2="150" y2="40"/>
  <line x1="360" y1="260" x2="360" y2="300"/>
  <g font-family="Arial" font-size="12px" stroke="none" text-anchor="end" dominant-baseline="middle">
    <text x="52" y="280">B1</text>
    <text x="52" y="260">B0</text>
    <text x="52" y="60">A1</text>
    <text x="52" y="40">A0</text>
  </g>
  <g font-family="Arial" font-size="12px" stroke="none" dominant-baseline="middle">
    <text x="498" y="220">C3</text>
    <text x="498" y="180">C2</text>
    <text x="498" y="140">C1</text>
    <text x="498" y="100">C0</text>
  </g>
  <g fill="none">
    <ellipse cx="490" cy="220" rx="3" ry="3"/>
    <ellipse cx="490" cy="180" rx="3" ry="3"/>
    <ellipse cx="490" cy="140" rx="3" ry="3"/>
    <ellipse cx="490" cy="100" rx="3" ry="3"/>
    <ellipse cx="60" cy="280" rx="3" ry="3"/>
    <ellipse cx="60" cy="260" rx="3" ry="3"/>
    <ellipse cx="60" cy="60" rx="3" ry="3"/>
    <ellipse cx="60" cy="40" rx="3" ry="3"/>
  </g>
  <line x1="470" y1="220" x2="487" y2="220"/>
  <line x1="470" y1="180" x2="487" y2="180"/>
  <line x1="470" y1="140" x2="487" y2="140"/>
  <line x1="470" y1="100" x2="487" y2="100"/>
  <line x1="63" y1="280" x2="120" y2="280"/>
  <line x1="63" y1="260" x2="150" y2="260"/>
  <line x1="63" y1="60" x2="80" y2="60"/>
  <line x1="63" y1="40" x2="100" y2="40"/>
  <line x1="360" y1="260" x2="390" y2="260"/>
  <line x1="360" y1="190" x2="390" y2="190"/>
  <line x1="360" y1="190" x2="360" y2="260"/>
  <line x1="210" y1="300" x2="360" y2="300"/>
  <line x1="340" y1="170" x2="400" y2="170"/>
  <line x1="340" y1="170" x2="340" y2="240"/>
  <line x1="320" y1="240" x2="400" y2="240"/>
  <line x1="330" y1="140" x2="480" y2="140"/>
  <line x1="210" y1="100" x2="480" y2="100"/>
  <line x1="230" y1="250" x2="260" y2="250"/>
  <line x1="250" y1="110" x2="250" y2="230"/>
  <line x1="230" y1="150" x2="260" y2="150"/>
  <line x1="230" y1="150" x2="230" y2="250"/>
  <line x1="220" y1="250" x2="270" y2="250"/>
  <line x1="250" y1="130" x2="260" y2="130"/>
  <line x1="250" y1="50" x2="250" y2="130"/>
  <line x1="210" y1="50" x2="250" y2="50"/>
  <line x1="390" y1="170" x2="405" y2="170"/>
  <line x1="390" y1="190" x2="405" y2="190"/>
  <path fill="none"
        d="M 399,170 M 399,160 Q 419,180 399,200 M 398,200 Q 433,195 448,180 Q 433,165 398,160"/>
  <line x1="450" y1="180" x2="460" y2="180"/>
  <line x1="390" y1="240" x2="405" y2="240"/>
  <line x1="390" y1="260" x2="405" y2="260"/>
  <path fill="none"
        d="M 405,240 M 405,230 L 405,270 L 429,270 M 405,230 L 429,230 M 429,270 A 5,5 90 0 0 429,230"/>
  <line x1="451" y1="250" x2="460" y2="250"/>
  <line x1="250" y1="230" x2="270" y2="230"/>
  <line x1="250" y1="250" x2="270" y2="250"/>
  <path fill="none"
        d="M 270,230 M 270,220 L 270,260 L 294,260 M 270,220 L 294,220 M 294,260 A 5,5 90 0 0 294,220"/>
  <line x1="316" y1="240" x2="330" y2="240"/>
  <line x1="150" y1="290" x2="165" y2="290"/>
  <line x1="150" y1="310" x2="165" y2="310"/>
  <path fill="none"
        d="M 165,290 M 165,280 L 165,320 L 189,320 M 165,280 L 189,280 M 189,320 A 5,5 90 0 0 189,280"/>
  <line x1="211" y1="300" x2="220" y2="300"/>
  <line x1="150" y1="240" x2="165" y2="240"/>
  <line x1="150" y1="260" x2="165" y2="260"/>
  <path fill="none"
        d="M 165,240 M 165,230 L 165,270 L 189,270 M 165,230 L 189,230 M 189,270 A 5,5 90 0 0 189,230"/>
  <line x1="211" y1="250" x2="220" y2="250"/>
  <line x1="260" y1="130" x2="275" y2="130"/>
  <line x1="260" y1="150" x2="275" y2="150"/>
  <path fill="none"
        d="M 269,130 M 269,120 Q 289,140 269,160 M 277,120 Q 297,140 277,160 M 276,160 Q 311,155 326,140 Q 311,125 276,120"/>
  <line x1="325" y1="140" x2="330" y2="140"/>
  <line x1="150" y1="90" x2="165" y2="90"/>
  <line x1="150" y1="110" x2="165" y2="110"/>
  <path d="M 165,90 M 165,80 L 165,120 L 189,120 M 165,80 L 189,80 M 189,120 A 5,5 90 0 0 189,80"
        fill="none"/>
  <line x1="211" y1="100" x2="220" y2="100"/>
  <line x1="150" y1="40" x2="165" y2="40"/>
  <line x1="150" y1="60" x2="165" y2="60"/>
  <path d="M 165,40 M 165,30 L 165,70 L 189,70 M 165,30 L 189,30 M 189,70 A 5,5 90 0 0 189,30"
        fill="none"/>
  <line x1="211" y1="50" x2="220" y2="50"/>
  <ellipse cx="340" cy="240" rx="2" ry="2"/>
  <ellipse cx="120" cy="280" rx="2" ry="2"/>
  <ellipse cx="140" cy="240" rx="2" ry="2"/>
  <ellipse cx="100" cy="260" rx="2" ry="2"/>
  <ellipse cx="140" cy="040" rx="2" ry="2"/>
  <ellipse cx="360" cy="260" rx="2" ry="2"/>
  <ellipse cx="230" cy="250" rx="2" ry="2"/>
  <ellipse cx="250" cy="130" rx="2" ry="2"/>
</svg>
